X:1
T:Title
%%score { 1 | 2 }
L:1/8
Q:1/4=100
M:3/2
K:F
V:1 treble nm="Grand Piano"
V:2 bass 
V:1
 [Fc]2 [D^Fd]2 [DGB]4 [CEc]4 | [CFA]2 [DFB]2 [CEG]8 | [CFA]2 [^CGA]2 [DFA]4 [_EFA]4 | %3
w: W.~H.~Ruebush * * *|||
 [DFA]2 [=B,FG]2 [CEG]8 | [Fc]2 [D^Fd]2 [DGB]4 [CEc]4 | [CFA]2 [DFB]2 [CEG]8 | %6
w: |||
 [CFA]2 [D^Fc]2 [DGB]4 [B,DG]4 | [A,CF]2 [G,CE]2 [A,CF]8 |] %8
w: ||
V:2
 [F,A,]2 D,2 G,4 C,4 | F,2 B,,2 C,8 | F,2 E,2 D,4 C,4 | =B,,2 G,,2 C,8 | [F,A,]2 D,2 G,4 C,4 | %5
 F,2 B,,2 C,8 | F,2 D,2 G,,4 B,,4 | C,2 C,2 F,8 |] %8

